public/logos/1867/ICR.svg

<svg version="1.1" id="Layer_1" xmlns="http://www.w3.org/2000/svg" xmlns:xlink="http://www.w3.org/1999/xlink" x="0" y="0" viewBox="0 0 283.5 283.5" xml:space="preserve"><style>.st0{fill:#c5892f}</style><symbol id="Nouveau_symbole_7" viewBox="-25.5 -25.5 51 51"><circle class="st0" r="25.5"/><path d="M0 2.8l-1.4 22.7h2.8L0 2.8zm-6.5 21.9l-2.7-.9L-.8 2.7l-5.7 22zm-7.3-3.2l-2.3-1.7L-1.7 2.3l-12.1 19.2zm-6-5.4l-1.7-2.3L-2.3 1.7l-17.5 14.4zm-4-6.9l-.9-2.7 22-5.7-21.1 8.4zm-1.7-7.8v-2.8L-2.8 0l-22.7 1.4zm.8-7.9l.9-2.7L-2.7-.8l-22-5.7zm3.2-7.3l1.7-2.3L-2.3-1.7l-19.2-12.1zm5.4-6l2.3-1.7L-1.7-2.3l-14.4-17.5zm6.9-4l2.7-.9 5.7 22-8.4-21.1zm7.8-1.7h2.8L0-2.8l-1.4-22.7zm7.9.8l2.7.9L.9-2.7l5.6-22zm7.3 3.2l2.3 1.7L1.7-2.3l12.1-19.2zm6 5.4l1.7 2.3L2.3-1.7l17.5-14.4zm4 6.9l.9 2.7-22 5.7 21.1-8.4zm1.7 7.8v2.8L2.8 0l22.7-1.4zm-.8 7.9l-.9 2.7L2.7.9l22 5.6zm-3.2 7.3l-1.7 2.3L2.3 1.7l19.2 12.1zm-5.4 6l-2.3 1.7L1.7 2.3l14.4 17.5zm-6.9 4l-2.7.9-5.7-22 8.4 21.1z" fill="#dfbc8a"/><path class="st0" d="M8.5 0c0-4.7-3.8-8.5-8.5-8.5S-8.5-4.7-8.5 0-4.7 8.5 0 8.5 8.5 4.7 8.5 0z"/><path d="M6.7-.3a6.7 6.7 0 10-13.4 0 6.7 6.7 0 0013.4 0zM0 4.9c-2.8 0-5.1-2.3-5.1-5.1S-2.8-5.4 0-5.4 5.1-3.1 5.1-.3 2.8 4.9 0 4.9z" fill="#ef4130"/><path d="M7.5-2.1c-.5.2-2.2.6-2.1 1.2 0 .6.7 1.4 1.1 1.4.3.2.2.5.2.5s-.3-.1-.5 0-.1.5 0 .7c.2.2.2.3-.1.5-.3.2 0 1.2.1 1.6.1.4.1.6-.3.1-.3-.6-.4-.3-.4.1s-.1 1-.3.1c-.3-.9-.6-.5-.7 0-.1.5-.7 3.6-.5-.7.2-4.3-1.1-4.6-1.9-4.7H2c.4.6.2 1.5.2 1.5C1.6.2.9.2.7-1.5c-.3 0-.5.1-.7.1-.2 0-.4 0-.7-.1C-.8.3-1.6.2-2.2.2c0 0-.2-.8.2-1.5h-.1c-.8.1-2.2.4-1.9 4.7.2 4.3-.3 1.2-.5.7-.1-.5-.4-.9-.7 0-.2.9-.3.4-.3-.1 0-.4-.1-.7-.5-.2-.4.5-.3.4-.3-.1.1-.4.3-1.4.1-1.6-.2-.1-.2-.2 0-.4.1-.2.2-.6 0-.7-.2-.1-.5 0-.5 0s-.2-.3.2-.4c.4-.1 1-.8 1.1-1.4 0-.6-1.6-1.1-2.1-1.2-.5-.3-.2-.5.3-.3.6.2 2.1.7 2.4.3.3-.4 0-1.2-.1-1.6-.2-.4-.3-.9-.2-1.2 0-.2 0-.3.2.1s.9 1.9 1.6 2.4c.6.5 1.4.3 1.7-.1 0-.1-.1-.3-.1-.4 0-1.2.2-1.8.6-2.6-.2-.9-.3-1.8.2-1.8 0 0 .4-.4.8-.4s.8.4.8.4c.5 0 .4.9.2 1.8.5.8.6 1.4.6 2.6 0 .2 0 .3-.1.4.5.4 1.3.6 1.9.1.7-.5 1.3-2 1.6-2.4.2-.4.2-.4.2-.1 0 .2-.1.8-.2 1.2-.1.3-.4 1.2-.1 1.6.3.4 1.8-.1 2.4-.3.5-.2.8 0 .3.2z" fill="#fff"/></symbol><path class="st0" d="M280.6 141.7c0 76.7-62.2 138.9-138.9 138.9S2.8 218.4 2.8 141.7 65 2.8 141.7 2.8 280.6 65 280.6 141.7z"/><defs><path id="SVGID_1_" d="M263.3 141.7c0 67.1-54.4 121.5-121.5 121.5S20.3 208.8 20.3 141.7 74.7 20.2 141.8 20.2s121.5 54.4 121.5 121.5z"/></defs><clipPath id="SVGID_2_"><use xlink:href="#SVGID_1_" overflow="visible"/></clipPath><g clip-path="url(#SVGID_2_)"><use xlink:href="#Nouveau_symbole_7" width="51" height="51" x="-25.5" y="-25.5" transform="matrix(6.8055 0 0 -6.8055 141.733 141.734)" overflow="visible"/></g><use xlink:href="#SVGID_1_" overflow="visible" fill="none" stroke="#fff" stroke-width=".5" stroke-miterlimit="10"/></svg>

<?xml version="1.0" encoding="utf-8"?>
<!-- Generator: Adobe Illustrator 25.0.1, SVG Export Plug-In . SVG Version: 6.00 Build 0)  -->
<svg version="1.1" id="Layer_1" xmlns="http://www.w3.org/2000/svg" xmlns:xlink="http://www.w3.org/1999/xlink" x="0px" y="0px"
	 viewBox="0 0 283.5 283.5" style="enable-background:new 0 0 283.5 283.5;" xml:space="preserve">
<style type="text/css">
	.st0{fill:#C5892F;}
	.st1{fill:#DFBC8A;}
	.st2{fill:#EF4130;}
	.st3{fill:#FFFFFF;}
</style>
<symbol  id="Nouveau_symbole_7" viewBox="-25.5 -25.5 51 51">
	<circle class="st0" cx="0" cy="0" r="25.5"/>
	<path class="st1" d="M0,2.8l-1.4,22.7h2.8L0,2.8z M-6.5,24.7l-2.7-0.9l8.4-21.1L-6.5,24.7z M-13.8,21.5l-2.3-1.7L-1.7,2.3
		L-13.8,21.5z M-19.8,16.1l-1.7-2.3L-2.3,1.7L-19.8,16.1z M-23.8,9.2l-0.9-2.7l22-5.7L-23.8,9.2z M-25.5,1.4v-2.8L-2.8,0L-25.5,1.4z
		 M-24.7-6.5l0.9-2.7l21.1,8.4L-24.7-6.5z M-21.5-13.8l1.7-2.3L-2.3-1.7L-21.5-13.8z M-16.1-19.8l2.3-1.7L-1.7-2.3L-16.1-19.8z
		 M-9.2-23.8l2.7-0.9l5.7,22L-9.2-23.8z M-1.4-25.5h2.8L0-2.8L-1.4-25.5z M6.5-24.7l2.7,0.9L0.9-2.7L6.5-24.7z M13.8-21.5l2.3,1.7
		L1.7-2.3L13.8-21.5z M19.8-16.1l1.7,2.3L2.3-1.7L19.8-16.1z M23.8-9.2l0.9,2.7l-22,5.7L23.8-9.2z M25.5-1.4v2.8L2.8,0L25.5-1.4z
		 M24.7,6.5l-0.9,2.7L2.7,0.9L24.7,6.5z M21.5,13.8l-1.7,2.3L2.3,1.7L21.5,13.8z M16.1,19.8l-2.3,1.7L1.7,2.3L16.1,19.8z M9.2,23.8
		l-2.7,0.9l-5.7-22L9.2,23.8z"/>
	<path class="st0" d="M8.5,0c0-4.7-3.8-8.5-8.5-8.5c-4.7,0-8.5,3.8-8.5,8.5c0,4.7,3.8,8.5,8.5,8.5C4.7,8.5,8.5,4.7,8.5,0z"/>
	<path class="st2" d="M6.7-0.3C6.7-4,3.7-7,0-7s-6.7,3-6.7,6.7s3,6.7,6.7,6.7S6.7,3.4,6.7-0.3z M0,4.9c-2.8,0-5.1-2.3-5.1-5.1
		S-2.8-5.4,0-5.4s5.1,2.3,5.1,5.1S2.8,4.9,0,4.9z"/>
	<path class="st3" d="M7.5-2.1C7-1.9,5.3-1.5,5.4-0.9c0,0.6,0.7,1.4,1.1,1.4C6.8,0.7,6.7,1,6.7,1S6.4,0.9,6.2,1
		c-0.2,0.1-0.1,0.5,0,0.7C6.4,1.9,6.4,2,6.1,2.2c-0.3,0.2,0,1.2,0.1,1.6c0.1,0.4,0.1,0.6-0.3,0.1C5.6,3.3,5.5,3.6,5.5,4
		c0,0.4-0.1,1-0.3,0.1c-0.3-0.9-0.6-0.5-0.7,0C4.4,4.6,3.8,7.7,4,3.4c0.2-4.3-1.1-4.6-1.9-4.7H2c0.4,0.6,0.2,1.5,0.2,1.5
		c-0.6,0-1.3,0-1.5-1.7c0,0,0,0,0,0C0.4-1.5,0.2-1.4,0-1.4c-0.2,0-0.4,0-0.7-0.1c0,0,0,0,0,0c-0.1,1.8-0.9,1.7-1.5,1.7
		c0,0-0.2-0.8,0.2-1.5h-0.1C-2.9-1.2-4.3-0.9-4,3.4c0.2,4.3-0.3,1.2-0.5,0.7c-0.1-0.5-0.4-0.9-0.7,0C-5.4,5-5.5,4.5-5.5,4
		c0-0.4-0.1-0.7-0.5-0.2c-0.4,0.5-0.3,0.4-0.3-0.1c0.1-0.4,0.3-1.4,0.1-1.6C-6.4,2-6.4,1.9-6.2,1.7c0.1-0.2,0.2-0.6,0-0.7
		C-6.4,0.9-6.7,1-6.7,1s-0.2-0.3,0.2-0.4c0.4-0.1,1-0.8,1.1-1.4c0-0.6-1.6-1.1-2.1-1.2C-8-2.3-7.7-2.5-7.2-2.3
		C-6.6-2.1-5.1-1.6-4.8-2c0.3-0.4,0-1.2-0.1-1.6c-0.2-0.4-0.3-0.9-0.2-1.2c0-0.2,0-0.3,0.2,0.1C-4.7-4.3-4-2.8-3.3-2.3
		C-2.7-1.8-1.9-2-1.6-2.4l0,0c0-0.1-0.1-0.3-0.1-0.4c0-1.2,0.2-1.8,0.6-2.6c-0.2-0.9-0.3-1.8,0.2-1.8c0,0,0.4-0.4,0.8-0.4
		c0.4,0,0.8,0.4,0.8,0.4c0.5,0,0.4,0.9,0.2,1.8c0.5,0.8,0.6,1.4,0.6,2.6c0,0.2,0,0.3-0.1,0.4l0,0C1.9-2,2.7-1.8,3.3-2.3
		c0.7-0.5,1.3-2,1.6-2.4c0.2-0.4,0.2-0.4,0.2-0.1c0,0.2-0.1,0.8-0.2,1.2C4.8-3.3,4.5-2.4,4.8-2c0.3,0.4,1.8-0.1,2.4-0.3
		C7.7-2.5,8-2.3,7.5-2.1z"/>
</symbol>
<g>
	<path class="st0" d="M280.6,141.7c0,76.7-62.2,138.9-138.9,138.9C65,280.6,2.8,218.4,2.8,141.7C2.8,65,65,2.8,141.7,2.8
		C218.4,2.8,280.6,65,280.6,141.7z"/>
	<g>
		<defs>
			<path id="SVGID_1_" d="M263.3,141.7c0,67.1-54.4,121.5-121.5,121.5c-67.1,0-121.5-54.4-121.5-121.5
				c0-67.1,54.4-121.5,121.5-121.5C208.9,20.2,263.3,74.6,263.3,141.7z"/>
		</defs>
		<clipPath id="SVGID_2_">
			<use xlink:href="#SVGID_1_"  style="overflow:visible;"/>
		</clipPath>
		<g style="clip-path:url(#SVGID_2_);">
			
				<use xlink:href="#Nouveau_symbole_7"  width="51" height="51" x="-25.5" y="-25.5" transform="matrix(6.8055 0 0 -6.8055 141.7335 141.7341)" style="overflow:visible;"/>
		</g>
		<use xlink:href="#SVGID_1_"  style="overflow:visible;fill:none;stroke:#FFFFFF;stroke-width:0.5;stroke-miterlimit:10;"/>
	</g>
</g>
</svg>
